**kern	**kern	**dynam
*part1	*part1	*part1
*staff2	*staff1	*
*I"Piano	*	*
*clefF4	*clefG2	*
*k[f#]	*k[f#]	*
=1	=1	=1
*	*^	*
4..BBB 4..BB	4.dd#X	4a 4cc	.
.	.	8gL 8b	.
.	8dd#	8f#J 8a	.
16BBB 16BB	.	.	.
=	=	=	=
!	!	!	!LO:DY:a
(8.EEL 8.E	(4..e 4..ee	8.gL	f
16DDK 16D	.	16ddK	.
8.CC 8.C	.	8.cc	.
16BBBJk) 16BB	16e) 16ee	16bJk	.
=	=	=	=
!	!	!	!LO:DY:a
(8.CCL 8.C	(4..a 4..aa	8.aaL	<
16BBBK 16BB	.	16ggK	.
8.AAA 8.AA	.	8.ff#	.
16GGGJk) 16GG	16a) 16aa	16eeJk	.
=	=	=	=
(8.FFF#L 8.FF#	(4..dd 4..ddd	8.dddL	.
16EEEK 16EE	.	16cccK	.
8.DDD 8.DD	.	8.bb	.
16CCCJk) 16CC	16dd) 16ddd	16aaJk	[[
=	=	=	=
(4BBBB 4BBB	(4dd#X 4ddd#X	8.aaL	.
.	.	16bbJk	.
8EEE) 8EE	8ee) 8eee	8gg	.
16r	16rdd	16rff	.
16FFF#' 16FF#	16aa' 16dddn	16ddn	.
=	=	=	=
8GGG' 8GG	8gg' 8bb	8b	.
*	*v	*v	*
16r	16r	.
16EEE' 16EE	16cc' 16gg 16ccc	.
8FFF#' 8FF#	8a' 8ff# 8aa	.
16r	16r	.
16DDD#X 16DD#X	16b 16ff# 16bb	.
=	=	=
*	*^	*
4EEE 4EE	4rffyy	4g 4ee 4gg	.
4BBB 4BB	(8eeL	4f# 4b 4ff#	.
.	8dd#XJ)	.	.
*	*v	*v	*
=:|!	=:|!	=:|!
*-	*-	*-
!!!system-decoration: {(s1,s2)}
